src/categories-icons-sprite/categories/svg-cat-home-repair.svg

<svg width="32" height="26" viewBox="0 0 32 26" fill="none" xmlns="http://www.w3.org/2000/svg">
<path class="p-293939" d="M12.2392 18.5715H6.5V16.7144H10.0465L9.2984 12.2239L11.1302 11.9192L12.2392 18.5715Z" fill="#4D98CB"/>
<path class="p-3E5959" d="M8.35714 22.2857H7.42857V11.1428H1.85714L0.928571 16.7143L1.85714 17.6428L0.618986 18.5714L0.309524 20.4285L1.85714 21.3571L0 22.2857V26H11.1429V25.0714C11.1429 23.5329 9.89566 22.2857 8.35714 22.2857Z" fill="#58ADE5"/>
<path class="p-3E5959" d="M31.695 5.57153H26.9902V7.42868H31.695V5.57153Z" fill="#58ADE5"/>
<path class="p-293939" d="M31.695 6.5H26.9902V7.42857H31.695V6.5Z" fill="#4D98CB"/>
<path class="p-537983" d="M27.9186 3.71436H23.2139V9.28578H27.9186V3.71436Z" fill="#58ADE5"/>
<path class="p-3E5959" d="M27.9186 6.5H23.2139V9.28571H27.9186V6.5Z" fill="#4D98CB"/>
<path class="p-FF9100" d="M22.2857 3.71429V9.28571L20.4286 11.1429C17.9399 12.4057 16.8443 13 15.0243 13H0V0H5.57143L7.42857 1.85714H13L14.8571 0H15.0243C16.8629 0 18.0514 0.649938 20.4286 1.85714L22.2857 3.71429Z" fill="#B9DFFC"/>
<path class="p-FF641A" d="M0 6.5H22.2857V9.28571L20.4286 11.1429C17.9399 12.4057 16.8443 13 15.0243 13H0V6.5Z" fill="#5FBEFF"/>
<path class="p-F03800" d="M5.57129 9.28575C5.57129 9.79859 5.98702 10.2143 6.49986 10.2143C7.0127 10.2143 7.42843 9.79859 7.42843 9.28575C7.42843 8.77291 7.0127 8.35718 6.49986 8.35718C5.98702 8.35718 5.57129 8.77291 5.57129 9.28575Z" fill="#4D98CB"/>
<path class="p-F03800" d="M9.28613 9.28575C9.28613 9.79859 9.70187 10.2143 10.2147 10.2143C10.7275 10.2143 11.1433 9.79859 11.1433 9.28575C11.1433 8.77291 10.7275 8.35718 10.2147 8.35718C9.70187 8.35718 9.28613 8.77291 9.28613 9.28575Z" fill="#4D98CB"/>
<path class="p-F03800" d="M13 9.28575C13 9.79859 13.4157 10.2143 13.9286 10.2143C14.4414 10.2143 14.8571 9.79859 14.8571 9.28575C14.8571 8.77291 14.4414 8.35718 13.9286 8.35718C13.4157 8.35718 13 8.77291 13 9.28575Z" fill="#4D98CB"/>
<path class="p-293939" d="M3.71444 17.6429C3.71444 17.1301 3.29871 16.7144 2.78587 16.7144H0.928726L0.619141 18.5715H2.78587C3.2987 18.5715 3.71444 18.1558 3.71444 17.6429Z" fill="#4D98CB"/>
<path class="p-293939" d="M3.71429 21.357C3.71429 20.8442 3.29855 20.4285 2.78571 20.4285H0.309586L0 22.2856H2.78571C3.29855 22.2856 3.71429 21.8699 3.71429 21.357Z" fill="#4D98CB"/>
<path class="p-537983" d="M14.857 0H5.57129C5.57129 2.05134 7.23423 3.71429 9.28557 3.71429H11.1427C13.1941 3.71429 14.857 2.05134 14.857 0Z" fill="#4D98CB"/>
<path class="p-ECECF1" d="M24.2049 3.71432V9.28575L20.4287 11.1429V1.85718L24.2049 3.71432Z" fill="#B9DFFC"/>
<path class="p-D3D3D8" d="M20.4287 6.5H24.2049V9.28571L20.4287 11.1429V6.5Z" fill="#A1D1FD"/>
</svg>

<svg width="32" height="26" fill="none" xmlns="http://www.w3.org/2000/svg"><path class="p-293939" d="M12.24 18.572H6.5v-1.858h3.546l-.748-4.49 1.832-.305 1.11 6.652z" fill="#4D98CB"/><path class="p-3E5959" d="M8.357 22.286H7.43V11.143H1.857L.93 16.714l.928.929-1.238.928-.31 1.857 1.548.93L0 22.285V26h11.143v-.929a2.786 2.786 0 00-2.786-2.785zM31.695 5.572H26.99v1.857h4.705V5.572z" fill="#58ADE5"/><path class="p-293939" d="M31.695 6.5H26.99v.929h4.705V6.5z" fill="#4D98CB"/><path class="p-537983" d="M27.919 3.714h-4.705v5.572h4.705V3.714z" fill="#58ADE5"/><path class="p-3E5959" d="M27.919 6.5h-4.705v2.786h4.705V6.5z" fill="#4D98CB"/><path class="p-FF9100" d="M22.286 3.714v5.572l-1.857 1.857C17.939 12.406 16.844 13 15.024 13H0V0h5.571L7.43 1.857H13L14.857 0h.167c1.839 0 3.027.65 5.405 1.857l1.857 1.857z" fill="#B9DFFC"/><path class="p-FF641A" d="M0 6.5h22.286v2.786l-1.857 1.857C17.939 12.406 16.844 13 15.024 13H0V6.5z" fill="#5FBEFF"/><path class="p-F03800" d="M5.571 9.286a.929.929 0 101.857 0 .929.929 0 00-1.857 0zM9.286 9.286a.929.929 0 101.857 0 .929.929 0 00-1.857 0zM13 9.286a.929.929 0 101.857 0 .929.929 0 00-1.857 0z" fill="#4D98CB"/><path class="p-293939" d="M3.714 17.643a.929.929 0 00-.928-.929H.929l-.31 1.858h2.167a.929.929 0 00.928-.93zM3.714 21.357a.929.929 0 00-.928-.928H.31L0 22.285h2.786a.929.929 0 00.928-.929z" fill="#4D98CB"/><path class="p-537983" d="M14.857 0H5.571a3.714 3.714 0 003.715 3.714h1.857A3.714 3.714 0 0014.857 0z" fill="#4D98CB"/><path class="p-ECECF1" d="M24.205 3.714v5.572l-3.776 1.857V1.857l3.776 1.857z" fill="#B9DFFC"/><path class="p-D3D3D8" d="M20.429 6.5h3.776v2.786l-3.776 1.857V6.5z" fill="#A1D1FD"/></svg>
